X: 19450
T: Jackson's
R: jig
M: 6/8
K: Gmajor
|:"G"G2 g dBG|"D"AGA cBA|"G"G2 g dBG|"D"AGA Bcd|
"G"G2 g dBG|"D"AGA Bcd|"C"cec "G"BdB|"D"AGA BGE:|
|:"G"DGG BGG|DGG Bcd|DGG Bdd|"D"edB A2 G|
"G"DGG BGG|DGG Bcd|"C"ege "G"dcB|AGG G3:|
|:"G"gbg "D"faf|"C"ege "D"def|"G"gfg "D"aga|"G"gbg "D"afd|
"G"gbg "D"faf|"C"ege "D"def|"G"gfe dcB|"D"AGA BGE:|

